!!!COM: Music21
!!!OTL: Baila, nena
!!!OMV: pezas_muineiras_baila-nena_baila-nena-partitura.musicxml
**kern
*I"Voz
*I'Ch
*clefG2
*k[b-]
*M6/8
*MM156
=1
!LO:TX:a:t=[quarter-dot]=104
2r
8aL
8b-J
=
4cc
8cc
4cc
8cc
=
4cc
[8cc
8ccL]
8dd
8ccJ
=
8.b-L
16aK
8gJ
8gL
8a
8b-J
=
4.a
8r
8aL
8b-J
=
4cc
8cc
4cc
8cc
!!linebreak:original
=
4cc
[8cc
8ccL]
8dd
8ccJ
=
8.b-L
16aK
8gJ
8gL
8a
8b-J
=
4.a
8r
8b-L
8ccJ
=
4dd
8dd
4dd
8dd
=
4dd
[8dd
8ddL]
8cc
8b-J
!!linebreak:original
=
8.ccL
16ddK
8ccJ
8b-L
8a
8gJ
=
8.aL
16b-K
[8ccJ
8ccL]
8b-
8ccJ
=
4dd
8dd
4dd
8dd
=
4dd
[8dd
8ddL]
8ee
8ddJ
=
8.ccL
16ddK
8ccJ
8b-L
8a
8gJ
=
4.a
8r
8aL
8b-J
!!linebreak:original
=
4cc
[8cc
8.ccL]
16ccK
8ccJ
=
4cc
[8cc
8ccL]
8dd
8ccJ
=
8.b-L
16aK
8gJ
8gL
8a
8b-J
=
4.a
8r
8aL
8b-J
=
8.ccL
16ccK
8ccJ
8.ccL
16ccK
8ccJ
=
4cc
[8cc
8ccL]
8dd
8ccJ
!!linebreak:original
=
8.b-L
16aK
8gJ
8.ccL
16b-K
8gJ
=
[2.f
=
4.f]
4.r
==
*-
